common/src/main/resources/icons/ide/dislikeDimmed.svg

<svg xmlns="http://www.w3.org/2000/svg" width="16" height="16" data-big="true" viewBox="0 0 24 24"><path fill="#4FC3F7" d="M19 15V3h4v12zM15 3a2 2 0 0 1 2 2v10c0 .55-.22 1.05-.59 1.41L9.83 23l-1.06-1.06c-.27-.27-.44-.64-.44-1.06l.03-.31.95-4.57H3a2 2 0 0 1-2-2v-2c0-.26.05-.5.14-.73l3.02-7.05C4.46 3.5 5.17 3 6 3zm0 2H5.97L3 12v2h8.78l-1.13 5.32L15 14.97z" data-themed="true"/></svg>

<!--
  - The MIT License (MIT)
  -
  - Copyright (c) 2015-2024 Elior "Mallowigi" Boukhobza
  -
  - Permission is hereby granted, free of charge, to any person obtaining a copy
  - of this software and associated documentation files (the "Software"), to deal
  - in the Software without restriction, including without limitation the rights
  - to use, copy, modify, merge, publish, distribute, sublicense, and/or sell
  - copies of the Software, and to permit persons to whom the Software is
  - furnished to do so, subject to the following conditions:
  -
  - The above copyright notice and this permission notice shall be included in all
  - copies or substantial portions of the Software.
  -
  - THE SOFTWARE IS PROVIDED "AS IS", WITHOUT WARRANTY OF ANY KIND, EXPRESS OR
  - IMPLIED, INCLUDING BUT NOT LIMITED TO THE WARRANTIES OF MERCHANTABILITY,
  - FITNESS FOR A PARTICULAR PURPOSE AND NONINFRINGEMENT. IN NO EVENT SHALL THE
  - AUTHORS OR COPYRIGHT HOLDERS BE LIABLE FOR ANY CLAIM, DAMAGES OR OTHER
  - LIABILITY, WHETHER IN AN ACTION OF CONTRACT, TORT OR OTHERWISE, ARISING FROM,
  - OUT OF OR IN CONNECTION WITH THE SOFTWARE OR THE USE OR OTHER DEALINGS IN THE
  - SOFTWARE.
  -->


<svg data-big="true" width="16px" height="16px" xmlns="http://www.w3.org/2000/svg" viewBox="0 0 24 24">
  <path fill="#4FC3F7" data-themed="true"
        d="M19,15V3H23V15H19M15,3A2,2 0 0,1 17,5V15C17,15.55 16.78,16.05 16.41,16.41L9.83,23L8.77,21.94C8.5,21.67 8.33,21.3 8.33,20.88L8.36,20.57L9.31,16H3C1.89,16 1,15.1 1,14V12C1,11.74 1.05,11.5 1.14,11.27L4.16,4.22C4.46,3.5 5.17,3 6,3H15M15,5H5.97L3,12V14H11.78L10.65,19.32L15,14.97V5Z"/>
</svg>
